X: 253
M: 6/8
L: 1/8
K: G
ded dcB | A2G BcB |\
ded dcB | A3 :|
|: "2.F."ABA |\
EFG EFG | A3 c2B |\

